src/images/big_fire.svg

<svg width="407" height="472" viewBox="0 0 407 472" fill="none" xmlns="http://www.w3.org/2000/svg">
<g clip-path="url(#clip0_1_3448)">
<path d="M424.789 322.005C419.291 309.679 411.707 297.542 400.617 283.522C372.653 248.332 364.122 169.86 364.027 169.108C363.648 165.344 360.994 162.239 357.487 161.11C353.884 159.981 349.998 161.016 347.439 163.838C314.072 201.193 328.101 258.87 335.684 281.923C337.77 288.227 340.045 295.66 341.655 303.187C353.978 364.064 330.186 391.633 324.593 397.184C319.19 398.689 315.493 397.937 312.08 394.267C300.326 381.377 296.44 339.13 301.938 284.087C303.076 272.89 302.791 262.822 301.179 253.413C289.584 185.759 247.07 142.362 236.247 127.143C206.482 83.1085 203.449 9.81166 203.354 9.15302C203.26 5.67165 201.269 2.56665 198.141 1.0612C195.107 -0.444256 191.411 -0.256073 188.567 1.71984C138.896 35.4985 143.162 116.887 150.081 162.333C151.693 172.871 154.821 183.598 160.224 197.147C179.467 245.604 156.433 308.174 156.243 308.739C156.053 309.303 155.864 309.773 155.769 310.338C152.83 325.769 147.901 334.99 142.403 334.99C141.835 334.99 141.266 334.896 140.602 334.708C133.872 333.296 130.365 326.145 130.27 319.935C129.891 239.676 49.4127 212.672 48.5596 212.389C44.9575 211.26 40.9763 212.295 38.5117 215.212C35.9523 218.129 35.4783 222.175 37.1846 225.562C38.1325 227.538 41.1658 236.194 39.0804 266.774C37.2794 294.249 32.2554 321.441 24.1981 347.504C5.05023 409.98 8.08356 469.164 8.27314 471.986C22.9971 632.23 253.252 660.308 389.904 570.029C404.881 560.149 417.11 548.859 426.115 536.439C476.545 466.811 446.875 372.25 424.789 322.005ZM74.5335 475.091C74.8178 480.266 70.8366 484.689 65.623 484.971H65.0543C60.0303 484.971 55.8595 481.113 55.5751 476.126C54.722 462.389 54.9116 447.993 55.9543 432.374C56.3335 427.199 60.8835 423.341 66.097 423.623C71.3106 423.999 75.2918 428.515 74.9126 433.69C73.869 448.558 73.6803 462.107 74.5335 475.091ZM79.1773 391.727C78.6086 396.525 74.5325 400.007 69.7929 400.007C69.4138 400.007 69.0346 400.007 68.5606 399.913C63.4419 399.254 59.745 394.643 60.3138 389.469L64.8638 353.149C65.5273 348.068 70.1721 344.399 75.4804 344.964C80.694 345.622 84.3908 350.327 83.7273 355.502L79.1773 391.727Z" fill="#3D3D3D"/>
<path d="M360.658 128.726C355.488 127.931 351.942 123.135 352.739 118.003C353.331 114.18 356.756 94.6093 366.05 84.7683C369.628 80.9736 375.617 80.776 379.45 84.3411C383.268 87.8921 383.462 93.8471 379.88 97.6418C375.946 101.809 372.595 113.735 371.475 120.871C370.675 125.948 365.904 129.511 360.658 128.726Z" fill="#3D3D3D"/>
<path d="M15.0849 175.594C13.2706 168.597 8.76232 157.056 4.43508 153.289C0.496489 149.861 0.103102 143.917 3.55541 140.012C6.9992 136.098 12.9834 135.698 16.9315 139.139C27.1462 148.028 32.483 167.173 33.4508 170.917C34.7466 175.948 31.6924 181.066 26.6287 182.361C21.453 183.653 16.375 180.541 15.0849 175.594Z" fill="#3D3D3D"/>
</g>
<defs>
<clipPath id="clip0_1_3448">
<rect width="455" height="472" fill="white"/>
</clipPath>
</defs>
</svg>

<svg width="407" height="472" fill="none" xmlns="http://www.w3.org/2000/svg"><g clip-path="url(#a)" fill="#3D3D3D"><path d="M424.789 322.005c-5.498-12.326-13.082-24.463-24.172-38.483-27.964-35.19-36.495-113.662-36.59-114.414-.379-3.764-3.033-6.869-6.54-7.998a9.609 9.609 0 0 0-10.048 2.728c-33.367 37.355-19.338 95.032-11.755 118.085 2.086 6.304 4.361 13.737 5.971 21.264 12.323 60.877-11.469 88.446-17.062 93.997-5.403 1.505-9.1.753-12.513-2.917-11.754-12.89-15.64-55.137-10.142-110.18 1.138-11.197.853-21.265-.759-30.674-11.595-67.654-54.109-111.051-64.932-126.27-29.765-44.034-32.798-117.331-32.893-117.99-.094-3.481-2.085-6.586-5.213-8.092-3.034-1.505-6.73-1.317-9.574.659-49.671 33.779-45.405 115.167-38.486 160.613 1.612 10.538 4.74 21.265 10.143 34.814 19.243 48.457-3.791 111.027-3.981 111.592-.19.564-.379 1.034-.474 1.599-2.939 15.431-7.868 24.652-13.366 24.652-.568 0-1.137-.094-1.801-.282-6.73-1.412-10.237-8.563-10.332-14.773-.379-80.259-80.857-107.263-81.71-107.546-3.602-1.129-7.584-.094-10.048 2.823-2.56 2.917-3.034 6.963-1.327 10.35.947 1.976 3.98 10.632 1.895 41.212-1.8 27.475-6.825 54.667-14.882 80.73C5.05 409.98 8.084 469.164 8.273 471.986c14.724 160.244 244.979 188.322 381.631 98.043 14.977-9.88 27.206-21.17 36.211-33.59 50.43-69.628 20.76-164.189-1.326-214.434ZM74.534 475.091c.284 5.175-3.697 9.598-8.911 9.88h-.569c-5.024 0-9.195-3.858-9.479-8.845-.853-13.737-.663-28.133.38-43.752.379-5.175 4.928-9.033 10.142-8.751 5.214.376 9.195 4.892 8.816 10.067-1.044 14.868-1.233 28.417-.38 41.401Zm4.643-83.364c-.568 4.798-4.645 8.28-9.384 8.28-.38 0-.758 0-1.232-.094-5.12-.659-8.816-5.27-8.247-10.444l4.55-36.32c.663-5.081 5.308-8.75 10.616-8.185 5.214.658 8.91 5.363 8.247 10.538l-4.55 36.225ZM360.658 128.726c-5.17-.795-8.716-5.591-7.919-10.723.592-3.823 4.017-23.394 13.311-33.235 3.578-3.794 9.567-3.992 13.4-.427a9.361 9.361 0 0 1 .43 13.3c-3.934 4.168-7.285 16.094-8.405 23.23-.8 5.077-5.571 8.64-10.817 7.855ZM15.085 175.594c-1.814-6.997-6.323-18.538-10.65-22.305-3.939-3.428-4.332-9.372-.88-13.277 3.444-3.914 9.428-4.314 13.377-.873 10.214 8.889 15.551 28.034 16.519 31.778 1.296 5.031-1.759 10.149-6.822 11.444-5.176 1.292-10.254-1.82-11.544-6.767Z"/></g><defs><clipPath id="a"><path fill="#fff" d="M0 0h455v472H0z"/></clipPath></defs></svg>
